Simply-Orange-Circles/scalable/apps/wmtweaks.svg

<?xml version="1.0" encoding="UTF-8" standalone="no"?>
<svg
   xmlns:dc="http://purl.org/dc/elements/1.1/"
   xmlns:cc="http://creativecommons.org/ns#"
   xmlns:rdf="http://www.w3.org/1999/02/22-rdf-syntax-ns#"
   xmlns:svg="http://www.w3.org/2000/svg"
   xmlns="http://www.w3.org/2000/svg"
   xmlns:sodipodi="http://sodipodi.sourceforge.net/DTD/sodipodi-0.dtd"
   xmlns:inkscape="http://www.inkscape.org/namespaces/inkscape"
   width="48"
   height="48"
   viewBox="0 0 12.7 12.7"
   version="1.1"
   id="svg4"
   sodipodi:docname="wmtweaks.svg"
   inkscape:version="0.92.4 (5da689c313, 2019-01-14)">
  <metadata
     id="metadata10">
    <rdf:RDF>
      <cc:Work
         rdf:about="">
        <dc:format>image/svg+xml</dc:format>
        <dc:type
           rdf:resource="http://purl.org/dc/dcmitype/StillImage" />
        <dc:title></dc:title>
      </cc:Work>
    </rdf:RDF>
  </metadata>
  <defs
     id="defs8" />
  <sodipodi:namedview
     pagecolor="#ffffff"
     bordercolor="#666666"
     borderopacity="1"
     objecttolerance="10"
     gridtolerance="10"
     guidetolerance="10"
     inkscape:pageopacity="0"
     inkscape:pageshadow="2"
     inkscape:window-width="1087"
     inkscape:window-height="480"
     id="namedview6"
     showgrid="false"
     inkscape:zoom="4.9166667"
     inkscape:cx="2.1355932"
     inkscape:cy="24"
     inkscape:window-x="0"
     inkscape:window-y="25"
     inkscape:window-maximized="0"
     inkscape:current-layer="svg4" />
  <path
     d="m 6.344,0.073 a 6.29,6.29 0 0 0 -6.29,6.29 6.29,6.29 0 0 0 6.29,6.288 6.29,6.29 0 0 0 6.29,-6.289 6.29,6.29 0 0 0 -6.29,-6.29 z M 6.326,1.009 a 5.407,5.407 0 0 1 5.407,5.407 5.407,5.407 0 0 1 -1.207,3.398 L 9.83,9.122 A 0.327,0.327 0 0 0 9.973,8.856 V 3.176 A 0.333,0.333 0 0 0 9.638,2.842 H 3.123 A 0.333,0.333 0 0 0 2.789,3.176 v 5.68 c 0,0.185 0.149,0.334 0.334,0.334 H 8.73 l 1.23,1.222 A 5.407,5.407 0 0 1 6.326,11.823 5.407,5.407 0 0 1 0.92,6.416 5.407,5.407 0 0 1 6.326,1.01 Z m -3.11,3.086 h 6.33 c 0.097,0 0.176,0.08 0.176,0.18 V 8.76 c 0,0.07 -0.04,0.129 -0.097,0.158 L 7.48,6.79 C 7.256,6.568 7.139,6.377 7.079,6.227 A 0.85,0.85 0 0 0 6.999,5.6 C 6.861,5.352 6.569,5.133 6.261,5.025 A 0.062,0.062 0 0 0 6.187,5.045 0.067,0.067 0 0 0 6.18,5.121 L 6.558,5.798 C 6.592,5.858 6.574,5.937 6.519,6.017 A 0.765,0.765 0 0 1 6.255,6.241 0.782,0.782 0 0 1 5.922,6.344 C 5.824,6.35 5.747,6.32 5.712,6.26 L 5.332,5.578 A 0.067,0.067 0 0 0 5.282,5.544 C 5.26,5.539 5.238,5.551 5.224,5.566 a 0.061,0.061 0 0 0 -0.016,0.03 c -0.073,0.315 -0.039,0.677 0.1,0.925 0.19,0.34 0.585,0.501 0.972,0.433 0.158,0.053 0.367,0.17 0.616,0.417 l 1.581,1.57 H 3.215 A 0.177,0.177 0 0 1 3.04,8.761 V 4.275 c 0,-0.1 0.078,-0.18 0.175,-0.18 z"
     id="path2"
     inkscape:connector-curvature="0"
     style="fill:#ff7f2a" />
</svg>

<svg xmlns="http://www.w3.org/2000/svg" width="48" height="48" viewBox="0 0 12.7 12.7"><path fill="#ff7f2a" d="M6.34.07a6.29 6.29 0 0 0-6.29 6.3 6.29 6.29 0 0 0 6.3 6.28 6.29 6.29 0 0 0 6.28-6.29A6.29 6.29 0 0 0 6.34.07zm-.01.94a5.4 5.4 0 0 1 5.4 5.4 5.4 5.4 0 0 1-1.2 3.4l-.7-.69a.33.33 0 0 0 .14-.26V3.18a.33.33 0 0 0-.33-.34H3.12a.33.33 0 0 0-.33.34v5.68c0 .18.15.33.33.33h5.61l1.23 1.22a5.4 5.4 0 0 1-3.63 1.41 5.4 5.4 0 0 1-5.41-5.4A5.4 5.4 0 0 1 6.32 1zM3.22 4.09h6.33c.1 0 .17.08.17.18v4.49c0 .07-.04.13-.1.16L7.49 6.79a1.7 1.7 0 0 1-.4-.56A.85.85 0 0 0 7 5.6a1.4 1.4 0 0 0-.74-.57.06.06 0 0 0-.07.02.07.07 0 0 0-.01.07l.38.68c.03.06.01.14-.04.22a.77.77 0 0 1-.26.22.78.78 0 0 1-.34.1c-.1.01-.17-.02-.2-.08l-.39-.68a.07.07 0 0 0-.05-.04l-.06.03a.06.06 0 0 0-.01.03c-.07.31-.04.67.1.92.19.34.58.5.97.43.16.06.37.17.62.42l1.58 1.57H3.2a.18.18 0 0 1-.17-.18V4.28c0-.1.08-.18.17-.18z"/></svg>
